public/images/salsa.svg

<?xml version="1.0" encoding="UTF-8" standalone="no"?><!DOCTYPE svg PUBLIC "-//W3C//DTD SVG 1.1//EN" "http://www.w3.org/Graphics/SVG/1.1/DTD/svg11.dtd"><svg width="100%" height="100%" viewBox="0 0 29 27" version="1.1" xmlns="http://www.w3.org/2000/svg" xmlns:xlink="http://www.w3.org/1999/xlink" xml:space="preserve" xmlns:serif="http://www.serif.com/" style="fill-rule:evenodd;clip-rule:evenodd;stroke-linejoin:round;stroke-miterlimit:2;"><rect id="Tavola-da-disegno8" serif:id="Tavola da disegno8" x="0" y="0" width="28.247" height="26.786" style="fill:none;"/><clipPath id="_clip1"><rect x="0" y="0" width="28.247" height="26.786"/></clipPath><g clip-path="url(#_clip1)"><g><g><g><g><path d="M9.858,12.675c4.462,0 8.085,1.962 8.085,4.379c0,2.416 -1.343,7.955 -8.085,7.736c-6.879,-0.224 -8.084,-5.32 -8.084,-7.736c-0,-2.417 3.622,-4.379 8.084,-4.379Z" style="fill:#752523;"/><path d="M1.764,17.576c0.99,-0.809 0.704,0.086 1.769,1.217c0.662,0.703 3.337,1.868 2.082,2.11c-1.255,0.242 -3.621,0.892 -4.253,0.171c-0.638,-0.725 -0.784,-2.528 0.402,-3.498Z" style="fill:#581513;"/><path d="M13.785,13.484c-1.219,0.387 0.347,0.291 1.227,1.572c0.546,0.796 2.176,2.814 2.679,1.639c0.503,-1.176 1.56,-1.671 0.991,-2.442c-0.574,-0.777 -3.421,-1.236 -4.897,-0.769Z" style="fill:#581513;"/><ellipse cx="9.858" cy="16.268" rx="6.448" ry="2.895" style="fill:#e2c2ba;"/></g><path d="M10.532,13.376c-0.157,0.608 -0.251,1.85 0,2.562c0.387,1.097 2.673,1.627 3.162,0.073c0.623,-1.98 -0.186,-4.243 1.217,-6.043c0.484,-0.621 2.186,-3.226 2.722,-4.088c0.89,-1.429 1.606,-3.576 0.642,-2.988c-0.836,0.51 -0.97,1.723 -1.934,3.051c-0.799,1.101 -2.581,3.781 -3.492,4.408c-1.831,1.263 -2.233,2.701 -2.317,3.025Z" style="fill:#581513;"/><path d="M12.123,11.732c-0,0 0.949,-0.614 1.343,0.672c0.295,0.962 0.318,3.969 -0.336,4.199c-0.653,0.231 -2.124,-0.017 -2.35,-1.178c-0.229,-1.176 0.825,-3.51 1.343,-3.693Z" style="fill:#3a6950;"/><path d="M9.444,13.372c1.718,-0.08 0.343,0.598 2.762,0.762c0.801,0.054 1.499,-0.133 2.008,-0c1.675,0.437 1.878,1.288 1.878,2.134c-0,1.544 -2.792,2.798 -6.231,2.798c-3.439,-0 -6.231,-1.254 -6.231,-2.798c-0,-1.545 1.087,-2.675 5.814,-2.896Z" style="fill:#3a6950;"/></g></g><g><path d="M25.354,12.303c-0.353,-0.69 -2.078,-1.142 -3.017,-1.142c-0.939,-0 -2.663,0.452 -3.016,1.142c-1.847,3.614 -3.343,12.526 -3.343,12.526c0,2.786 2.85,2.297 6.359,2.297c3.51,0 6.359,0.489 6.359,-2.297c-0,0 -1.495,-8.912 -3.342,-12.526Z" style="fill:#f7f8f8;"/><path d="M20.908,14.189c0.029,-0.58 -0.062,-0.97 -0.23,-0.987c-0.168,-0.017 -0.38,0.342 -0.535,0.909c-0.814,2.966 -2.431,10.318 -2.431,10.318c-0.372,2.312 0.204,1.958 0.833,2.022c0.628,0.064 1.073,0.522 1.446,-1.79c-0,-0 0.765,-7.439 0.917,-10.472Z" style="fill:#e6e6e6;"/><path d="M22.429,14.119c-0.08,-0.576 -0.243,-0.951 -0.413,-0.948c-0.169,0.002 -0.311,0.383 -0.359,0.962c-0.249,3.029 -0.471,10.49 -0.471,10.49c0.065,2.331 0.568,1.913 1.202,1.902c0.634,-0.012 1.16,0.389 1.095,-1.942c-0,0 -0.637,-7.447 -1.054,-10.464Z" style="fill:#e6e6e6;"/><path d="M24.911,14.092c-0.155,-0.568 -0.317,-0.932 -0.409,-0.921c-0.091,0.011 -0.094,0.394 -0.007,0.97c0.457,3.014 1.794,10.421 1.794,10.421c0.491,2.308 0.682,1.87 1.024,1.829c0.342,-0.04 0.706,0.332 0.215,-1.975c0,-0 -1.8,-7.352 -2.617,-10.324Z" style="fill:#e6e6e6;"/><path d="M25.725,9.333c-0,-0.205 -0.167,-0.371 -0.371,-0.371l-6.033,-0c-0.205,-0 -0.371,0.166 -0.371,0.371l-0,3.958c-0,0.205 0.166,0.371 0.371,0.371c1.748,0.96 3.711,1.134 6.033,0c0.204,0 0.371,-0.166 0.371,-0.371l-0,-3.958Z"/><path d="M25.725,9.135c-0,-0.096 -0.078,-0.173 -0.174,-0.173c-2.38,-1.187 -4.515,-1.147 -6.428,-0c-0.095,-0 -0.173,0.077 -0.173,0.173l-0,1.852c-0,0.096 0.078,0.174 0.173,0.174c2.073,1.669 4.216,1.676 6.428,-0c0.096,-0 0.174,-0.078 0.174,-0.174l-0,-1.852Z" style="fill:#2f2f2f;"/><circle cx="19.823" cy="9.651" r="0.41"/><circle cx="21.095" cy="9.241" r="0.41"/><circle cx="20.589" cy="10.54" r="0.41"/><circle cx="23.15" cy="10.949" r="0.41"/><circle cx="21.857" cy="10.13" r="0.41"/><circle cx="23.125" cy="9.764" r="0.41"/><circle cx="24.418" cy="10.54" r="0.41"/><circle cx="24.373" cy="9.433" r="0.41"/><circle cx="22.353" cy="6.326" r="0.41"/><path d="M21.237,7.343c0.115,-0.195 0.367,-0.26 0.562,-0.145c0.195,0.115 0.259,0.367 0.144,0.561c-0.115,0.195 -0.366,0.26 -0.561,0.145c-0.195,-0.115 -0.26,-0.367 -0.145,-0.561Z"/><path d="M23.012,3.189c0.033,0.224 -0.122,0.432 -0.345,0.465c-0.224,0.033 -0.433,-0.121 -0.466,-0.345c-0.033,-0.224 0.122,-0.433 0.345,-0.466c0.224,-0.033 0.433,0.122 0.466,0.346Z"/><circle cx="23.75" cy="7.35" r="0.41"/><path d="M22.401,4.635c0.034,0.224 -0.121,0.433 -0.345,0.466c-0.224,0.033 -0.432,-0.122 -0.466,-0.346c-0.033,-0.223 0.122,-0.432 0.346,-0.465c0.224,-0.033 0.432,0.121 0.465,0.345Z"/><path d="M20.578,5.792c0.21,0.085 0.311,0.324 0.225,0.534c-0.085,0.209 -0.324,0.31 -0.534,0.225c-0.209,-0.085 -0.31,-0.324 -0.225,-0.534c0.085,-0.21 0.325,-0.311 0.534,-0.225Z"/><circle cx="23.951" cy="5.55" r="0.41"/><path d="M23.537,4.67c0.033,0.224 -0.122,0.433 -0.346,0.466c-0.224,0.033 -0.432,-0.122 -0.465,-0.345c-0.033,-0.224 0.121,-0.433 0.345,-0.466c0.224,-0.033 0.433,0.122 0.466,0.345Z"/><path d="M20.925,4.095c0.21,0.086 0.31,0.325 0.225,0.535c-0.085,0.209 -0.324,0.31 -0.534,0.225c-0.21,-0.085 -0.31,-0.325 -0.225,-0.534c0.085,-0.21 0.324,-0.311 0.534,-0.226Z"/><circle cx="21.18" cy="2.779" r="0.41"/><path d="M22.816,0.779c0.033,0.224 -0.122,0.432 -0.346,0.466c-0.223,0.033 -0.432,-0.122 -0.465,-0.346c-0.033,-0.224 0.121,-0.432 0.345,-0.465c0.224,-0.034 0.433,0.121 0.466,0.345Z"/><path d="M23.502,6.465c0.013,0.09 -0.049,0.173 -0.138,0.186c-0.089,0.013 -0.173,-0.048 -0.186,-0.138c-0.013,-0.089 0.049,-0.172 0.138,-0.185c0.089,-0.014 0.172,0.048 0.186,0.137Z"/><path d="M23.046,5.652c0.013,0.089 -0.049,0.172 -0.138,0.185c-0.089,0.014 -0.173,-0.048 -0.186,-0.137c-0.013,-0.09 0.049,-0.173 0.138,-0.186c0.089,-0.013 0.172,0.048 0.186,0.138Z"/><path d="M21.955,5.634c0.013,0.089 -0.049,0.172 -0.138,0.186c-0.089,0.013 -0.173,-0.049 -0.186,-0.138c-0.013,-0.09 0.049,-0.173 0.138,-0.186c0.089,-0.013 0.172,0.049 0.186,0.138Z"/><circle cx="21.869" cy="11.359" r="0.41"/><circle cx="22.337" cy="8.9" r="0.41"/></g></g></g></svg>

<?xml version="1.0" encoding="UTF-8" standalone="no"?><!DOCTYPE svg PUBLIC "-//W3C//DTD SVG 1.1//EN" "http://www.w3.org/Graphics/SVG/1.1/DTD/svg11.dtd"><svg width="29px" height="27px" version="1.1" xmlns="http://www.w3.org/2000/svg" xmlns:xlink="http://www.w3.org/1999/xlink" xml:space="preserve" xmlns:serif="http://www.serif.com/" style="fill-rule:evenodd;clip-rule:evenodd;stroke-linejoin:round;stroke-miterlimit:2;"><rect id="Tavola-da-disegno8" serif:id="Tavola da disegno8" x="0" y="0" width="28.247" height="26.786" style="fill:none;"/><clipPath id="_clip1"><rect x="0" y="0" width="28.247" height="26.786"/></clipPath><g clip-path="url(#_clip1)"><g><g><g><g><path d="M9.858,12.675C14.32,12.675 17.943,14.637 17.943,17.054C17.943,19.47 16.6,25.009 9.858,24.79C2.979,24.566 1.774,19.47 1.774,17.054C1.774,14.637 5.396,12.675 9.858,12.675Z" style="fill:#752523;"/><path d="M1.764,17.576C2.754,16.767 2.468,17.662 3.533,18.793C4.195,19.496 6.87,20.661 5.615,20.903C4.36,21.145 1.994,21.795 1.362,21.074C0.724,20.349 0.578,18.546 1.764,17.576Z" style="fill:#581513;"/><path d="M13.785,13.484C12.566,13.871 14.132,13.775 15.012,15.056C15.558,15.852 17.188,17.87 17.691,16.695C18.194,15.519 19.251,15.024 18.682,14.253C18.108,13.476 15.261,13.017 13.785,13.484Z" style="fill:#581513;"/><ellipse cx="9.858" cy="16.268" rx="6.448" ry="2.895" style="fill:#e2c2ba;"/></g><path d="M10.532,13.376C10.375,13.984 10.281,15.226 10.532,15.938C10.919,17.035 13.205,17.565 13.694,16.011C14.317,14.031 13.508,11.768 14.911,9.968C15.395,9.347 17.097,6.742 17.633,5.88C18.523,4.451 19.239,2.304 18.275,2.892C17.439,3.402 17.305,4.615 16.341,5.943C15.542,7.044 13.76,9.724 12.849,10.351C11.018,11.614 10.616,13.052 10.532,13.376Z" style="fill:#581513;"/><path d="M12.123,11.732C12.123,11.732 13.072,11.118 13.466,12.404C13.761,13.366 13.784,16.373 13.13,16.603C12.477,16.834 11.006,16.586 10.78,15.425C10.551,14.249 11.605,11.915 12.123,11.732Z" style="fill:#3a6950;"/><path d="M9.444,13.372C11.162,13.292 9.787,13.97 12.206,14.134C13.007,14.188 13.705,14.001 14.214,14.134C15.889,14.571 16.092,15.422 16.092,16.268C16.092,17.812 13.3,19.066 9.861,19.066C6.422,19.066 3.63,17.812 3.63,16.268C3.63,14.723 4.717,13.593 9.444,13.372Z" style="fill:#3a6950;"/></g></g><g><path d="M25.354,12.303C25.001,11.613 23.276,11.161 22.337,11.161C21.398,11.161 19.674,11.613 19.321,12.303C17.474,15.917 15.978,24.829 15.978,24.829C15.978,27.615 18.828,27.126 22.337,27.126C25.847,27.126 28.696,27.615 28.696,24.829C28.696,24.829 27.201,15.917 25.354,12.303Z" style="fill:#f7f8f8;"/><path d="M20.908,14.189C20.937,13.609 20.846,13.219 20.678,13.202C20.51,13.185 20.298,13.544 20.143,14.111C19.329,17.077 17.712,24.429 17.712,24.429C17.34,26.741 17.916,26.387 18.545,26.451C19.173,26.515 19.618,26.973 19.991,24.661C19.991,24.661 20.756,17.222 20.908,14.189Z" style="fill:#e6e6e6;"/><path d="M22.429,14.119C22.349,13.543 22.186,13.168 22.016,13.171C21.847,13.173 21.705,13.554 21.657,14.133C21.408,17.162 21.186,24.623 21.186,24.623C21.251,26.954 21.754,26.536 22.388,26.525C23.022,26.513 23.548,26.914 23.483,24.583C23.483,24.583 22.846,17.136 22.429,14.119Z" style="fill:#e6e6e6;"/><path d="M24.911,14.092C24.756,13.524 24.594,13.16 24.502,13.171C24.411,13.182 24.408,13.565 24.495,14.141C24.952,17.155 26.289,24.562 26.289,24.562C26.78,26.87 26.971,26.432 27.313,26.391C27.655,26.351 28.019,26.723 27.528,24.416C27.528,24.416 25.728,17.064 24.911,14.092Z" style="fill:#e6e6e6;"/><path d="M25.725,9.333C25.725,9.128 25.558,8.962 25.354,8.962L19.321,8.962C19.116,8.962 18.95,9.128 18.95,9.333L18.95,13.291C18.95,13.496 19.116,13.662 19.321,13.662C21.069,14.622 23.032,14.796 25.354,13.662C25.558,13.662 25.725,13.496 25.725,13.291L25.725,9.333Z"/><path d="M25.725,9.135C25.725,9.039 25.647,8.962 25.551,8.962C23.171,7.775 21.036,7.815 19.123,8.962C19.028,8.962 18.95,9.039 18.95,9.135L18.95,10.987C18.95,11.083 19.028,11.161 19.123,11.161C21.196,12.83 23.339,12.837 25.551,11.161C25.647,11.161 25.725,11.083 25.725,10.987L25.725,9.135Z" style="fill:#2f2f2f;"/><circle cx="19.823" cy="9.651" r="0.41"/><circle cx="21.095" cy="9.241" r="0.41"/><circle cx="20.589" cy="10.54" r="0.41"/><circle cx="23.15" cy="10.949" r="0.41"/><circle cx="21.857" cy="10.13" r="0.41"/><circle cx="23.125" cy="9.764" r="0.41"/><circle cx="24.418" cy="10.54" r="0.41"/><circle cx="24.373" cy="9.433" r="0.41"/><circle cx="22.353" cy="6.326" r="0.41"/><path d="M21.237,7.343C21.352,7.148 21.604,7.083 21.799,7.198C21.994,7.313 22.058,7.565 21.943,7.759C21.828,7.954 21.577,8.019 21.382,7.904C21.187,7.789 21.122,7.537 21.237,7.343Z"/><path d="M23.012,3.189C23.045,3.413 22.89,3.621 22.667,3.654C22.443,3.687 22.234,3.533 22.201,3.309C22.168,3.085 22.323,2.876 22.546,2.843C22.77,2.81 22.979,2.965 23.012,3.189Z"/><circle cx="23.75" cy="7.35" r="0.41"/><path d="M22.401,4.635C22.435,4.859 22.28,5.068 22.056,5.101C21.832,5.134 21.624,4.979 21.59,4.755C21.557,4.532 21.712,4.323 21.936,4.29C22.16,4.257 22.368,4.411 22.401,4.635Z"/><path d="M20.578,5.792C20.788,5.877 20.889,6.116 20.803,6.326C20.718,6.535 20.479,6.636 20.269,6.551C20.06,6.466 19.959,6.227 20.044,6.017C20.129,5.807 20.369,5.706 20.578,5.792Z"/><circle cx="23.951" cy="5.55" r="0.41"/><path d="M23.537,4.67C23.57,4.894 23.415,5.103 23.191,5.136C22.967,5.169 22.759,5.014 22.726,4.791C22.693,4.567 22.847,4.358 23.071,4.325C23.295,4.292 23.504,4.447 23.537,4.67Z"/><path d="M20.925,4.095C21.135,4.181 21.235,4.42 21.15,4.63C21.065,4.839 20.826,4.94 20.616,4.855C20.406,4.77 20.306,4.53 20.391,4.321C20.476,4.111 20.715,4.01 20.925,4.095Z"/><circle cx="21.18" cy="2.779" r="0.41"/><path d="M22.816,0.779C22.849,1.003 22.694,1.211 22.47,1.245C22.247,1.278 22.038,1.123 22.005,0.899C21.972,0.675 22.126,0.467 22.35,0.434C22.574,0.4 22.783,0.555 22.816,0.779Z"/><path d="M23.502,6.465C23.515,6.555 23.453,6.638 23.364,6.651C23.275,6.664 23.191,6.603 23.178,6.513C23.165,6.424 23.227,6.341 23.316,6.328C23.405,6.314 23.488,6.376 23.502,6.465Z"/><path d="M23.046,5.652C23.059,5.741 22.997,5.824 22.908,5.837C22.819,5.851 22.735,5.789 22.722,5.7C22.709,5.61 22.771,5.527 22.86,5.514C22.949,5.501 23.032,5.562 23.046,5.652Z"/><path d="M21.955,5.634C21.968,5.723 21.906,5.806 21.817,5.82C21.728,5.833 21.644,5.771 21.631,5.682C21.618,5.592 21.68,5.509 21.769,5.496C21.858,5.483 21.941,5.545 21.955,5.634Z"/><circle cx="21.869" cy="11.359" r="0.41"/><circle cx="22.337" cy="8.9" r="0.41"/></g></g></g></svg>
